modules/feathericon/icons/bell.svg

<?xml version="1.0" encoding="UTF-8"?>
<svg width="24px" height="24px" viewBox="0 0 24 24" version="1.1" xmlns="http://www.w3.org/2000/svg" xmlns:xlink="http://www.w3.org/1999/xlink">
    <!-- Generator: sketchtool 52.2 (67145) - http://www.bohemiancoding.com/sketch -->
    <title>bell</title>
    <desc>Created with sketchtool.</desc>
    <g id="web-app" stroke="none" stroke-width="1" fill="none" fill-rule="evenodd">
        <g id="bell" fill="#000000">
            <path d="M15,18 L15,19 C15,20.6568542 13.6568542,22 12,22 C10.3431458,22 9,20.6568542 9,19 L9,18 C6.33333333,18 5,18 5,18 C4.44999981,18 4,17.5499992 4,17 C4,16.4500008 4.44999981,16 5,16 C5,16 5.33333333,16 6,16 L6,10 C6,7.02700371 8.16228666,4.55903653 11,4.08295844 L11,3 C11,2.44771525 11.4477153,2 12,2 C12.5522847,2 13,2.44771525 13,3 L13,4.08295844 C15.8377133,4.55903653 18,7.02700371 18,10 L18,16 C18.6666667,16 19,16 19,16 C19.5499992,16 20,16.4500008 20,17 C20,17.5499992 19.5499992,18 19,18 C19,18 17.6666667,18 15,18 Z M8,16 L16,16 L16,10 C16,7.790861 14.209139,6 12,6 C9.790861,6 8,7.790861 8,10 L8,16 Z M12,20 C12.5522847,20 13,19.5522847 13,19 C13,18.7251922 13,18.3918589 13,18 L11,18 C11,18.470365 11,18.8036984 11,19 C11,19.5522847 11.4477153,20 12,20 Z" id="Shape"></path>
        </g>
    </g>
</svg>

<svg width="24" height="24" viewBox="0 0 24 24" xmlns="http://www.w3.org/2000/svg"><path d="M15 18v1a3 3 0 0 1-6 0v-1H5c-.55 0-1-.45-1-1s.45-1 1-1h1v-6a6.002 6.002 0 0 1 5-5.917V3a1 1 0 0 1 2 0v1.083c2.838.476 5 2.944 5 5.917v6h1c.55 0 1 .45 1 1s-.45 1-1 1h-4zm-7-2h8v-6a4 4 0 1 0-8 0v6zm4 4a1 1 0 0 0 1-1v-1h-2v1a1 1 0 0 0 1 1z" fill="#000" fill-rule="evenodd"/></svg>
